static/images/hero-tribal-bird-vector.svg

<svg xmlns="http://www.w3.org/2000/svg" width="408" height="397" fill="none" viewBox="0 0 408 397"><path fill="#8EA4CE" d="M188.562 277.448C189.63 277.515 190.698 277.582 191.833 277.582C193.835 277.381 189.63 277.381 188.562 277.448Z"/><path fill="#8EA4CE" d="M405.011 208.19C402.942 194.512 399.404 181.1 395.934 167.756C393.264 157.347 392.73 142.201 387.858 132.793C380.85 119.248 366.366 127.388 354.753 128.723C340.937 130.258 327.055 131.592 313.172 131.725C297.087 131.859 262.047 133.26 260.512 110.641C259.577 97.4967 269.255 86.6876 274.327 75.4114C278.933 65.0026 279.533 52.5255 276.93 41.5829C270.924 16.295 252.769 6.48672 228.608 2.14974C198.908 -3.18809 172.811 2.08302 144.445 10.6235C131.363 14.5602 118.215 18.2967 104.599 19.7646C95.5224 20.6987 97.4579 19.2308 95.9228 26.4368C95.0552 30.3735 97.4579 32.5086 101.129 32.909C116.146 34.3101 131.097 35.9782 146.047 37.5796C158.928 38.914 159.729 29.4394 168.806 21.833C183.757 9.15564 212.256 7.08723 229.81 14.6936C279.2 36.0449 245.428 115.979 195.837 108.306C183.757 106.438 171.81 98.8978 166.003 88.022C163 82.4173 156.659 71.3413 149.184 71.0744C136.569 70.5406 123.888 70.0736 111.274 69.6065C107.536 69.4731 100.795 67.805 97.5914 70.6741C93.8538 73.9435 96.924 77.5465 100.728 77.9469C121.352 80.1487 150.586 87.6217 151.053 113.31C151.653 143.202 113.61 133.794 94.855 131.659C70.6939 128.923 35.9207 119.649 12.1601 127.188C-6.12749 132.926 3.08307 179.499 3.2833 194.378C3.68376 194.378 3.95073 243.019 3.95073 247.623C4.01747 255.563 18.434 256.23 18.5675 245.421C18.6342 236.414 17.5663 227.539 16.8989 218.599C15.4973 200.917 13.4283 178.231 19.5019 161.217C24.8413 146.138 45.3315 147.539 58.6134 146.538C70.3602 145.604 82.1737 145.404 93.9205 145.871C98.7928 146.071 112.942 144.67 116.747 148.006C120.284 151.209 111.474 166.088 110.473 169.958C108.471 177.831 108.003 185.904 108.003 193.978C108.07 212.86 110.206 234.812 119.149 251.76C125.49 263.77 140.374 270.642 143.11 284.387C145.847 298.399 136.236 319.484 131.097 332.228C128.627 338.299 109.538 375.731 130.629 374.73C140.107 374.33 147.449 331.494 149.718 323.554C151.32 317.949 156.592 284.521 164.535 285.255C177.883 286.456 166.537 318.283 165.002 327.157C161.865 345.572 157.06 363.587 153.722 381.936C151.987 391.544 153.055 392.345 162.199 393.746C169.874 394.88 170.475 383.537 171.142 378.667C173.478 360.985 175.481 343.237 179.552 325.822C180.086 323.554 187.561 294.93 190.097 296.531C198.107 301.669 194.169 318.216 193.435 326.022C192.233 338.633 189.897 351.11 189.03 363.788C188.629 369.993 185.492 387.608 189.163 392.812C192.3 397.216 202.645 396.415 206.583 394.547C209.453 393.212 207.251 383.004 207.184 380.735C206.783 368.124 207.117 355.38 207.384 342.77C207.651 329.092 208.452 315.413 209.386 301.735C210.387 287.99 219.531 284.12 222.268 299.667C227.14 327.157 227.207 355.514 229.743 383.271C230.878 395.614 244.493 376.732 245.428 373.396C248.431 361.919 245.494 348.241 244.56 336.631C243.158 320.017 241.356 303.337 242.825 286.656C244.093 272.844 254.104 292.127 254.905 294.996C258.443 307.674 261.446 320.484 263.115 333.562C264.516 344.638 263.782 356.848 268.521 367.257C273.326 377.666 284.472 376.598 287.943 365.522C291.28 354.847 285.34 343.704 281.602 334.096C276.53 321.152 273.326 307.54 269.856 294.129C267.453 284.721 258.443 266.839 265.317 258.365C282.403 237.214 288.944 215.062 289.078 187.906C289.144 176.63 285.006 165.354 285.273 154.478C285.54 142.134 304.295 145.204 312.304 144.87C325.987 144.269 377.112 136.396 380.449 154.345C385.455 181.834 384.32 210.125 384.787 237.948C384.921 247.089 385.188 251.827 395.8 250.559C399.671 250.092 403.275 248.357 405.278 244.887C410.55 235.213 406.612 218.532 405.011 208.19ZM271.991 212.527C264.783 252.027 229.609 274.779 191.766 277.515C188.295 277.448 187.895 277.448 188.496 277.381C143.444 274.846 119.283 233.945 121.886 191.109C124.422 148.94 158.194 124.519 200.176 123.785C254.972 122.851 280.601 165.754 271.991 212.527Z"/><path fill="#8EA4CE" d="M202.311 90.7576C223.135 90.3573 244.627 74.2771 239.688 51.4579C235.883 33.9765 219.932 20.7654 201.978 21.099C154.924 22.0999 160.864 91.5583 202.311 90.7576ZM206.316 30.0399C238.82 33.1091 233.347 80.8827 203.046 79.6817C164.068 78.0803 169.541 26.5036 206.316 30.0399Z"/><path fill="#8EA4CE" d="M50.6042 208.523C50.6042 201.584 52.9403 161.284 47.4006 161.817C30.8483 163.552 33.9184 194.445 34.1187 207.856C34.2522 218.665 32.4501 258.766 48.7354 257.164C56.5444 256.364 51.6721 242.419 51.2717 236.48C50.671 227.206 50.6042 217.865 50.6042 208.523Z"/><path fill="#8EA4CE" d="M335.264 154.144C322.449 151.742 324.251 160.616 325.253 169.224C326.454 179.566 327.388 189.974 327.522 200.383C327.722 214.462 327.188 228.54 326.854 242.686C326.721 248.624 342.272 251.026 342.272 249.291C342.539 228.407 340.003 207.656 339.068 186.839C338.868 178.431 344.141 155.812 335.264 154.144Z"/><path fill="#8EA4CE" d="M366.3 155.812C365.165 150.141 355.354 149.874 355.487 155.946C355.821 168.156 356.755 180.433 357.356 192.643C357.69 200.45 355.287 250.959 365.832 250.959C379.715 250.892 369.503 215.062 369.036 207.523C367.968 190.708 369.57 172.226 366.3 155.812Z"/><path fill="#8EA4CE" d="M76.7008 193.978C76.3004 183.169 76.7008 172.159 75.5662 161.417C75.099 157.214 71.6951 155.412 67.7572 157.48C64.954 158.948 65.488 164.219 65.1543 166.955C63.3522 184.236 64.4201 201.718 65.8884 218.999C66.5559 227.139 67.0231 235.279 68.1577 243.419C69.4926 252.961 76.1001 252.093 76.5673 242.886C77.3015 226.605 77.3682 210.258 76.7008 193.978C76.7008 193.177 76.6341 192.443 76.7008 193.978Z"/><path fill="#8EA4CE" d="M76.7008 193.978C76.7675 195.646 76.7675 194.779 76.7008 193.978V193.978Z"/><path fill="#8EA4CE" d="M308.9 172.426C308.9 172.827 308.9 173.16 308.9 173.227C308.9 173.16 308.9 172.96 308.9 172.426C308.9 171.959 308.9 171.692 308.9 171.626C308.9 171.759 308.9 172.026 308.9 172.36C308.9 166.488 309.835 156.346 301.559 158.481C295.218 160.083 296.753 167.022 297.02 172.093C298.021 190.642 299.022 209.124 300.024 227.673C300.29 232.877 298.488 242.085 305.43 241.885C315.174 241.618 311.904 228.54 311.637 222.535C310.769 205.855 308.9 189.107 308.9 172.426Z"/><path fill="#8EA4CE" d="M93.8538 161.084C85.4442 158.415 86.1784 244.754 94.855 245.555C104.666 246.422 104.533 164.486 93.8538 161.084Z"/><path fill="#8EA4CE" d="M143.911 60.9326C153.722 60.3321 155.725 59.9317 154.523 50.8574C153.923 46.3203 100.929 35.5112 95.8561 48.5888C90.7169 62.0001 141.442 61.066 143.911 60.9326Z"/><path fill="#8EA4CE" d="M157.727 150.875C129.762 173.694 121.285 212.994 146.781 241.218C171.943 269.108 216.861 266.639 246.629 236.881C256.373 227.139 259.978 204.453 260.178 199.182C260.912 182.835 254.838 166.488 244.226 154.078C220.799 126.988 184.358 129.123 157.727 150.875ZM231.945 234.612C215.593 248.09 179.485 255.83 158.261 233.344C139.239 213.194 140.774 183.903 159.996 164.553C207.784 116.446 291.881 184.97 231.945 234.612Z"/><path fill="#8EA4CE" d="M206.983 69.1395C227.54 65.2028 221 39.1142 201.377 39.7147C178.15 40.4487 184.491 73.4097 206.983 69.1395ZM203.913 48.1885C213.992 48.1885 212.99 61.7332 203.98 63.0677C194.169 64.4689 199.175 48.1885 203.913 48.1885Z"/><path fill="#8EA4CE" d="M203.58 160.95C152.454 158.415 140.507 225.471 188.629 237.348C239.955 250.092 261.646 167.956 203.58 160.95ZM190.231 228.874C156.259 215.93 172.277 161.284 208.252 169.491C244.426 179.699 224.737 242.018 190.231 228.874Z"/><path fill="#8EA4CE" d="M203.046 179.699C181.688 180.099 174.613 213.261 195.504 217.264C219.398 221.868 229.009 179.432 203.046 179.699ZM192.901 200.183C192.901 200.383 192.901 200.517 192.901 200.65C192.901 200.517 192.901 200.383 192.901 200.183C192.967 199.316 192.967 198.448 192.901 200.183C193.168 192.577 205.582 192.377 205.382 199.649C205.115 207.322 192.634 207.923 192.901 200.183Z"/></svg>

<svg xmlns="http://www.w3.org/2000/svg" fill="none" viewBox="0 0 408 397"><path fill="#8EA4CE" d="M188.562 277.448c1.068.067 2.136.134 3.271.134 2.002-.201-2.203-.201-3.271-.134z"/><path fill="#8EA4CE" d="M405.011 208.19c-2.069-13.678-5.607-27.09-9.077-40.434-2.67-10.409-3.204-25.555-8.076-34.963-7.008-13.545-21.492-5.405-33.105-4.07-13.816 1.535-27.698 2.869-41.581 3.002-16.085.134-51.125 1.535-52.66-21.084-.935-13.144 8.743-23.953 13.815-35.23 4.606-10.408 5.206-22.886 2.603-33.828-6.006-25.288-24.161-35.096-48.322-39.433-29.7-5.338-55.797-.067-84.163 8.473-13.082 3.937-26.23 7.674-39.846 9.142-9.077.934-7.141-.534-8.676 6.672-.868 3.936 1.535 6.072 5.206 6.472 15.017 1.401 29.968 3.07 44.918 4.67 12.881 1.335 13.682-8.14 22.759-15.746 14.951-12.677 43.45-14.746 61.004-7.14 49.39 21.352 15.618 101.286-33.973 93.613-12.08-1.868-24.027-9.408-29.834-20.284-3.003-5.605-9.344-16.68-16.819-16.948-12.615-.533-25.296-1-37.91-1.468-3.738-.133-10.479-1.801-13.683 1.068-3.737 3.27-.667 6.872 3.137 7.273 20.624 2.202 49.858 9.675 50.325 35.363.6 29.892-37.443 20.484-56.198 18.349-24.161-2.736-58.934-12.01-82.695-4.471-18.287 5.738-9.077 52.311-8.877 67.19.4 0 .668 48.641.668 53.245.066 7.94 14.483 8.607 14.616-2.202.067-9.007-1-17.882-1.668-26.822-1.402-17.682-3.47-40.368 2.603-57.382 5.34-15.079 25.83-13.678 39.111-14.679 11.747-.934 23.56-1.134 35.308-.667 4.872.2 19.021-1.201 22.826 2.135 3.537 3.203-5.273 18.082-6.274 21.952-2.002 7.873-2.47 15.946-2.47 24.02.067 18.882 2.203 40.834 11.146 57.782 6.341 12.01 21.225 18.882 23.961 32.627 2.737 14.012-6.874 35.097-12.013 47.841-2.47 6.071-21.559 43.503-.468 42.502 9.478-.4 16.82-43.236 19.089-51.176 1.602-5.605 6.874-39.033 14.817-38.299 13.348 1.201 2.002 33.028.467 41.902-3.137 18.415-7.942 36.43-11.28 54.779-1.735 9.608-.667 10.409 8.477 11.81 7.675 1.134 8.276-10.209 8.943-15.079 2.336-17.682 4.339-35.43 8.41-52.845.534-2.268 8.009-30.892 10.545-29.291 8.01 5.138 4.072 21.685 3.338 29.491-1.202 12.611-3.538 25.088-4.405 37.766-.401 6.205-3.538 23.82.133 29.024 3.137 4.404 13.482 3.603 17.42 1.735 2.87-1.335.668-11.543.601-13.812-.401-12.611-.067-25.355.2-37.965.267-13.678 1.068-27.357 2.002-41.035 1.001-13.745 10.145-17.615 12.882-2.068 4.872 27.49 4.939 55.847 7.475 83.604 1.135 12.343 14.75-6.539 15.685-9.875 3.003-11.477.066-25.155-.868-36.765-1.402-16.614-3.204-33.294-1.735-49.975 1.268-13.812 11.279 5.471 12.08 8.34 3.538 12.678 6.541 25.488 8.21 38.566 1.401 11.076.667 23.286 5.406 33.695 4.805 10.409 15.951 9.341 19.422-1.735 3.337-10.675-2.603-21.818-6.341-31.426-5.072-12.944-8.276-26.556-11.746-39.967-2.403-9.408-11.413-27.29-4.539-35.764 17.086-21.151 23.627-43.303 23.761-70.459.066-11.276-4.072-22.552-3.805-33.428.267-12.344 19.022-9.274 27.031-9.608 13.683-.601 64.808-8.474 68.145 9.475 5.006 27.489 3.871 55.78 4.338 83.603.134 9.141.401 13.879 11.013 12.611 3.871-.467 7.475-2.202 9.478-5.672 5.272-9.674 1.334-26.355-.267-36.697zm-133.02 4.337c-7.208 39.5-42.382 62.252-80.225 64.988-3.471-.067-3.871-.067-3.27-.134-45.052-2.535-69.213-43.436-66.61-86.272 2.536-42.169 36.308-66.59 78.29-67.324 54.796-.934 80.425 41.969 71.815 88.742z"/><path fill="#8EA4CE" d="M202.311 90.758c20.824-.4 42.316-16.48 37.377-39.3-3.805-17.481-19.756-30.693-37.71-30.359-47.054 1-41.114 70.46.333 69.659zm4.005-60.718c32.504 3.07 27.031 50.843-3.27 49.642-38.978-1.602-33.505-53.178 3.27-49.642zM50.604 208.523c0-6.939 2.336-47.239-3.203-46.706-16.553 1.735-13.483 32.628-13.282 46.039.133 10.809-1.669 50.91 14.616 49.308 7.81-.8 2.937-14.745 2.537-20.684-.601-9.274-.668-18.615-.668-27.957zm284.66-54.379c-12.815-2.402-11.013 6.472-10.011 15.08 1.201 10.342 2.135 20.75 2.269 31.159.2 14.079-.334 28.157-.668 42.303-.133 5.938 15.418 8.34 15.418 6.605.267-20.884-2.269-41.635-3.204-62.452-.2-8.408 5.073-31.027-3.804-32.695zm31.036 1.668c-1.135-5.671-10.946-5.938-10.813.134.334 12.21 1.268 24.487 1.869 36.697.334 7.807-2.069 58.316 8.476 58.316 13.883-.067 3.671-35.897 3.204-43.436-1.068-16.815.534-35.297-2.736-51.711zM76.7 193.978c-.4-10.809 0-21.819-1.134-32.561-.467-4.203-3.87-6.005-7.809-3.937-2.803 1.468-2.269 6.739-2.603 9.475-1.802 17.281-.734 34.763.734 52.044.668 8.14 1.135 16.28 2.27 24.42 1.335 9.542 7.942 8.674 8.41-.533.734-16.281.8-32.628.133-48.908 0-.801-.067-1.535 0 0z"/><path fill="#8EA4CE" d="M76.7 193.978c.067 1.668.067.801 0 0zm232.2-21.552v.801-1.601.734c0-5.872.935-16.014-7.341-13.879-6.341 1.602-4.806 8.541-4.539 13.612 1.001 18.549 2.002 37.031 3.004 55.58.266 5.204-1.536 14.412 5.406 14.212 9.744-.267 6.474-13.345 6.207-19.35-.868-16.68-2.737-33.428-2.737-50.109zM93.854 161.084c-8.41-2.669-7.676 83.67 1.001 84.471 9.811.867 9.678-81.069-1.001-84.471zm50.057-100.151c9.811-.6 11.814-1.001 10.612-10.076-.6-4.537-53.594-15.346-58.667-2.268-5.14 13.411 45.586 12.477 48.055 12.344zm13.816 89.942c-27.965 22.819-36.442 62.119-10.946 90.343 25.162 27.89 70.08 25.421 99.848-4.337 9.744-9.742 13.349-32.428 13.549-37.699.734-16.347-5.34-32.694-15.952-45.104-23.427-27.09-59.868-24.955-86.499-3.203zm74.218 83.737c-16.352 13.478-52.46 21.218-73.684-1.268-19.022-20.15-17.487-49.441 1.735-68.791 47.788-48.107 131.885 20.417 71.949 70.059zM206.983 69.14c20.557-3.937 14.017-30.026-5.606-29.425-23.227.734-16.886 33.695 5.606 29.424zm-3.07-20.952c10.079 0 9.077 13.545.067 14.88-9.811 1.4-4.805-14.88-.067-14.88z"/><path fill="#8EA4CE" d="M203.58 160.95c-51.126-2.535-63.073 64.521-14.951 76.398 51.326 12.744 73.017-69.392 14.951-76.398zm-13.349 67.924c-33.972-12.944-17.954-67.59 18.021-59.383 36.174 10.208 16.485 72.527-18.021 59.383z"/><path fill="#8EA4CE" d="M203.046 179.699c-21.358.4-28.433 33.562-7.542 37.565 23.894 4.604 33.505-37.832 7.542-37.565zm-10.145 20.484v.467-.467c.066-.867.066-1.735 0 0 .267-7.606 12.681-7.806 12.481-.534-.267 7.673-12.748 8.274-12.481.534z"/></svg>
